X: 18886
T: In The Dog House
R: jig
M: 6/8
K: Eminor
|:~e3 def|eBG AGF|EFG FAd|BAG AB1/2c1/2d|
~e3 def|eBG AGF|EFG FAd|1 Bdf egf:|2 Bdf e2f||
|:g2B fga|gfe cde|~f3 fga|gfe f2B|
gaf gfe|c2G FDE|~F3 ABd|1 Bdf eBf:|2 Bdf egf||

